X: 24664
T: MacIsaac's
R: reel
M: 4/4
K: Adorian
g|eABG AAGA|BGAB AGAB|eABG ABGB|dBgB AAA:|
g|edeg aged|eA ~B2 dGGg|edeg aged|eABG BAAg|
edeg aged|eA ~B2 dGGg|eABG ABGB|dBgB A3||

